X: 20
T: Tan bien mi son pensada / Si je fet ung cop apres
N: Derived from Jap3020-Tan_bien_mi_son_pensada.krn
C: Jean Japart
%%abc-version 2.0
%%abcx-abcm2ps-target-version 5.9.1 (29 Sep 2008)
%%abc-creator hum2abc beta
%%abcx-conversion-date 2019/02/16 20:40:05
%%abc-edited-by Jesse Rodin
%%abc-edited-by Chris Gage 09-25-2013
%%abcx-initial-encoding-date 2013/10/24/
%%humdrum-veritas 1280265380
%%humdrum-veritas-data 1041041946
%%linebreak <none>
%%barnumbers 0
L: 1/4
M: 2/1
Q: 1/2=120
%%staves [1 2 3 4]
V: 1 clef=treble
V: 2 clef=treble-8
V: 3 clef=treble-8
V: 4 clef=bass
K: F
[V:1] z8 | 
[V:2] z8 | 
[V:3] z8 | 
[V:4] z8 | 
[V:1] z4G4 | 
[V:2] z4d4 | 
[V:3] z4G4 | 
[V:4] z4G,,4 | 
[V:1] F8 | 
[V:2] d8 | 
[V:3] A8 | 
[V:4] D,8 | 
[V:1] G6A2 | 
[V:2] d6B2- | 
[V:3] B8 | 
[V:4] G,,4G,4- | 
[V:1] B4A3G | 
[V:2] Bcdef4- | 
[V:3] G4c4- | 
[V:4] G,4F,4- | 
[V:1] F3ED4- | 
[V:2] f4f4 | 
[V:3] c4B4- | 
[V:4] F,4B,,4 | 
[V:1] D2G3AB2 | 
[V:2] g3fd4 | 
[V:3] B2A2G4 | 
[V:4] G,,3A,,B,,4 | 
[V:1] A2G4^F2 | 
[V:2] c4A4 | 
[V:3] A8 | 
[V:4] C,4D,4 | 
[V:1] G8 | 
[V:2] B4_e4- | 
[V:3] G8- | 
[V:4] G,,4C,4- | 
[V:1] z4G4 | 
[V:2] e2d2_e2dc | 
[V:3] G8 | 
[V:4] C,4B,,2A,,2 | 
[V:1] d8 | 
[V:2] B6A2 | 
[V:3] z4G4 | 
[V:4] G,,4G,4 | 
[V:1] d6cB | 
[V:2] G8 | 
[V:3] d8 | 
[V:4] B,6A,G, | 
[V:1] A4B4 | 
[V:2] A4z2G2 | 
[V:3] d6cB | 
[V:4] F,4G,4 | 
[V:1] c6BA | 
[V:2] A4F4 | 
[V:3] A4B4 | 
[V:4] F,8 | 
[V:1] G8 | 
[V:2] G8 | 
[V:3] c4c4 | 
[V:4] E,8 | 
[V:1] F4B4- | 
[V:2] A4z4 | 
[V:3] d4d4- | 
[V:4] D,4G,4 | 
[V:1] B2A2A4- | 
[V:2] z8 | 
[V:3] d2c2A4 | 
[V:4] D,4F,4 | 
[V:1] A4G4 | 
[V:2] d8 | 
[V:3] B8 | 
[V:4] G,8 | 
[V:1] A8- | 
[V:2] d4c4- | 
[V:3] A8 | 
[V:4] D,4F,4- | 
[V:1] A8 | 
[V:2] c2d2f4 | 
[V:3] z4A4 | 
[V:4] F,2E,2D,4 | 
[V:1] z8 | 
[V:2] e6c2 | 
[V:3] c4c4 | 
[V:4] C,4A,,4 | 
[V:1] z8 | 
[V:2] d3cd2e2 | 
[V:3] B6AG | 
[V:4] G,,3A,,B,,2C,2 | 
[V:1] z8 | 
[V:2] f6ed | 
[V:3] F6G2 | 
[V:4] D,6E,2 | 
[V:1] z8 | 
[V:2] c4f4 | 
[V:3] A4B4- | 
[V:4] F,4D,4- | 
[V:1] z8 | 
[V:2] d2e2c2e2 | 
[V:3] B2A2A4- | 
[V:4] D,2C,2A,,4 | 
[V:1] z8 | 
[V:2] d2efgfed | 
[V:3] A4G4 | 
[V:4] B,,8 | 
[V:1] c8 | 
[V:2] c4c4 | 
[V:3] A8 | 
[V:4] A,,8 | 
[V:1] B6AG | 
[V:2] d8- | 
[V:3] z4G4 | 
[V:4] B,,4G,,4 | 
[V:1] F4c4 | 
[V:2] d4c4 | 
[V:3] A8 | 
[V:4] D,4F,4 | 
[V:1] B4d4- | 
[V:2] z4d4- | 
[V:3] B8 | 
[V:4] G,8- | 
[V:1] d2cBA4- | 
[V:2] d2e2f4- | 
[V:3] G4c4- | 
[V:4] G,4F,4- | 
[V:1] A2G2B4- | 
[V:2] f4f4 | 
[V:3] c2B2d4- | 
[V:4] F,4B,,4 | 
[V:1] B2A2G4 | 
[V:2] g3fd2d2- | 
[V:3] d2c2B4 | 
[V:4] G,,3A,,B,,3C, | 
[V:1] F4G4- | 
[V:2] d2cBc4 | 
[V:3] A4G4 | 
[V:4] D,4E,4 | 
[V:1] G4^F4 | 
[V:2] d8 | 
[V:3] A8 | 
[V:4] D,8 | 
[V:1] !fermata!G8 | 
[V:2] !fermata!d8 | 
[V:3] !fermata!G8 | 
[V:4] !fermata!G,,8 | 
[V:1] z4G4 | 
[V:2] z4d4 | 
[V:3] z4G4 | 
[V:4] z4G,,4 | 
[V:1] G8 | 
[V:2] c4c4 | 
[V:3] G4G4 | 
[V:4] C,4E,4 | 
[V:1] F2A3GF2 | 
[V:2] d4d4 | 
[V:3] A4B4 | 
[V:4] D,8 | 
[V:1] E3FG2A2- | 
[V:2] g6f2- | 
[V:3] c8 | 
[V:4] C,3D,E,2F,2- | 
[V:1] ABc3BA2 | 
[V:2] f2e4f2 | 
[V:3] c4c4 | 
[V:4] F,G,A,3G,F,2 | 
[V:1] G2B3AG2 | 
[V:2] gfedc4 | 
[V:3] G4G4 | 
[V:4] E,8 | 
[V:1] F3ED4 | 
[V:2] d8 | 
[V:3] A4=B4 | 
[V:4] D,8 | 
[V:1] E8 | 
[V:2] g8 | 
[V:3] c8 | 
[V:4] C,8 | 
[V:1] z4A4- | 
[V:2] z4f4 | 
[V:3] z4c4 | 
[V:4] z4F,4- | 
[V:1] A8 | 
[V:2] f4f4 | 
[V:3] c4c4 | 
[V:4] F,4A,4 | 
[V:1] B4A2d2- | 
[V:2] g4a4- | 
[V:3] d4f4 | 
[V:4] G,4D,4 | 
[V:1] d2^c=Bc4 | 
[V:2] a2g2e4 | 
[V:3] e8 | 
[V:4] A,8 | 
[V:1] d6c2 | 
[V:2] z4f4 | 
[V:3] d4d4 | 
[V:4] B,6A,2 | 
[V:1] B4A4 | 
[V:2] g4e2f2 | 
[V:3] d4c4 | 
[V:4] G,4A,2F,2 | 
[V:1] G2G4^F2 | 
[V:2] d8 | 
[V:3] B4A4 | 
[V:4] G,4D,4 | 
[V:1] G8 | 
[V:2] z4d4 | 
[V:3] G8- | 
[V:4] G,,8- | 
[V:1] z4d4 | 
[V:2] d4d4 | 
[V:3] G8 | 
[V:4] G,,8- | 
[V:1] d8 | 
[V:2] G8 | 
[V:3] z8 | 
[V:4] G,,8 | 
[V:1] G4A4 | 
[V:2] B4A4 | 
[V:3] z8 | 
[V:4] z4D,4 | 
[V:1] F4F4 | 
[V:2] A4A4 | 
[V:3] z8 | 
[V:4] D,4D,4 | 
[V:1] G4F2B2- | 
[V:2] G4A2F2- | 
[V:3] d8 | 
[V:4] G,,4D,4 | 
[V:1] BAA4G2 | 
[V:2] FGA2B4 | 
[V:3] c4B4 | 
[V:4] F,4G,4 | 
[V:1] A2c3BA2- | 
[V:2] c2A3Bc2 | 
[V:3] A4c4 | 
[V:4] F,4A,4 | 
[V:1] AGG4^F2 | 
[V:2] d4d4 | 
[V:3] B4A4 | 
[V:4] G,4D,4 | 
[V:1] G8 |]  
[V:2] d8 |]  
[V:3] G8 |]  
[V:4] G,,8 |]  



